X: 3
T: Hey, Johnnie Cope  v.1
P: piffero primo a0074
O: trad
F: http://ancients.sudburymuster.org/mus/med/pdf/balquidderheyjC0.pdf
Z: 2019 John Chambers <jc:trillian.mit.edu>
M: 2/4
L: 1/16
K: Bm
F2 |\
B2B2 Bcde | f2B2 c2Bc | A2A2 ABcd | e2a2 c2BA |\
d2cd e2de | f2a2 c2BA | B2b2 fedc | B4   B2  :|
|: c2 |\
d2dd dAFA | defg a2fd | c2A2 e2A2 | cdef e2dc |\
dcde fefb | afed c2BA | BABb fedc | B4   B2  :|
F2 |\
B2B2 Bcde | f2B2 c2Bc | A2A2 ABcd | e2a2 c2BA |\
d2cd e2de | f2a2 c2BA | B2b2 fedc | B4   B2  |]

% %sep 1 1 200
% %center - - - - - - - - - -
% Whatever we want at the bottom of each set belongs here.
